X: 31
T: No_27_Undetermined_Dance_Song_(a).krn
N: Derived from No_27_Undetermined_Dance_Song_(a).krn
%%abc-version 2.0
%%abcx-abcm2ps-target-version 5.9.1 (29 Sep 2008)
%%abc-creator hum2abc beta
%%abcx-conversion-date 2019/03/15 08:36:49
%%humdrum-veritas 2093317028
%%humdrum-veritas-data 1476533289
%%linebreak <none>
%%barnumbers 0
L: 1/8
M: 2/4
K: G clef=bass
[K:clef=bass][M:2/4]B,3/B,/ [I:setbarnb 1]| 
D3/D/ D3/D/ | 
B,D/C/ B,A, ||  
[M:3/4]G,3/G,/ G,3/D,/ B,3/B,/ ||  
[M:2/4]D3/D/ D3/D/ | 
B,D/C/ B,A, ||  
[M:5/8]G,3/G,/G,G, z ||  
[M:3/8]G,G,E, ||  
[M:2/4]D,3/D,/ D, z | 
D,3/D,/ D,3/D,/ ||  
[M:3/4]D,3/D,/ D,3/D,/D,2 ||  
[M:2/4](3G,E,D, (3E,D,F, ||  
[M:3/4](3G,E,D, D,3/D,/D,2 ||  
[M:2/4](3G,E,D, (3E,D,F, ||  
[M:3/4](3G,E,D, D,3/D,/D,2 ||  
[M:2/4]D,3/D,/ D,3/D,/ | 
D,3/D,/ D,3/D,/ | 
D,2z2 |]  



